src/img/curves/curves-black-top.svg

<?xml version="1.0" encoding="utf-8"?>
<!-- Generator: Adobe Illustrator 26.0.3, SVG Export Plug-In . SVG Version: 6.00 Build 0)  -->
<svg version="1.1" id="Layer_1" xmlns="http://www.w3.org/2000/svg" xmlns:xlink="http://www.w3.org/1999/xlink" x="0px" y="0px"
	 viewBox="0 0 1632.5 192.5" style="enable-background:new 0 0 1632.5 192.5;" xml:space="preserve">
<style type="text/css">
	.st0{fill:url(#gentle-wave-2_00000057855170017554468430000010013919875205369218_);}
	.st1{fill:#0000FF;}
	.st2{fill:#010017;}
</style>
<g id="Group_922" transform="translate(1427.902 118.971) rotate(180)">
	
		<linearGradient id="gentle-wave-2_00000137853778243309774200000010440648361668657306_" gradientUnits="userSpaceOnUse" x1="202.25705" y1="26.5" x2="-396.391174" y2="26.5" gradientTransform="matrix(-1 0 0 -1 1223.30188 45.471001)">
		<stop  offset="0" style="stop-color:#FF6C00"/>
		<stop  offset="1" style="stop-color:#FF0000"/>
	</linearGradient>
	<path id="gentle-wave-2" style="fill:url(#gentle-wave-2_00000137853778243309774200000010440648361668657306_);" d="
		M-204.598145,35.971001c228.300049,0,297.200073-35.900002,426.900024-35.900002
		c249.5,0,291.299988,35.900002,426.299988,35.900002s238.400024-109.5,373.400024-109.5s347.200012,109.5,405.899963,109.5v75.5
		h-1632.5V35.971001z"/>
	<path id="gentle-wave" class="st1" d="M-204.598145,35.971001c213.400024,0,187.5-55,378.200073-55c162.5,0,150,55,413.5,55
		S1006.80188-65.228996,1141.80188-65.228996s151.099976,101.199997,286.099976,101.199997v75.5h-1632.5V35.971001z"/>
</g>
<path class="st2" d="M0.002075-0.028999v83c53,0,87.699951,15.599998,118.5,34.599998
	c61.400024,22.300003,135.400024,49.699997,203.199951,64.400009c103.699951-11.900009,223.199951-70.100006,394.099976-91.300011
	c20.5-4.800003,41.599976-7.699997,63.5-7.699997c9.900024,0,19.299988,0.199997,28.299988,0.599998
	c10.900024-0.400002,21.900024-0.599998,33.200012-0.599998c152,0,212.199951,18.300003,267,33.800003
	c28.699951,1.300003,61,2.099998,97.800049,2.099998c129.699951,0,198.599976-35.900002,426.899902-35.900002v-83H0.002075z"/>
</svg>

<?xml version="1.0" encoding="utf-8"?>
<!-- Generator: Adobe Illustrator 25.1.0, SVG Export Plug-In . SVG Version: 6.00 Build 0)  -->
<svg version="1.1" id="Layer_1" xmlns="http://www.w3.org/2000/svg" xmlns:xlink="http://www.w3.org/1999/xlink" x="0px" y="0px"
	 viewBox="0 0 1632.5 192.5" style="enable-background:new 0 0 1632.5 192.5;" xml:space="preserve">
<style type="text/css">
	.st0{fill:#FF0000;}
	.st1{fill:#0000FF;}
</style>
<g id="Group_922" transform="translate(1427.902 118.971) rotate(180)">
	<path id="gentle-wave-2" class="st0" d="M-204.6,36C23.7,36,92.6,0.1,222.3,0.1C471.8,0.1,513.6,36,648.6,36S887-73.5,1022-73.5
		S1369.2,36,1427.9,36v73H-204.6V36z"/>
	<path id="gentle-wave" class="st1" d="M-204.6,36C8.8,36-17.1-19,173.6-19c162.5,0,150,55,413.5,55s419.7-101.2,554.7-101.2
		S1292.9,36,1427.9,36v73H-204.6V36z"/>
</g>
<path d="M0,0v83c53,0,87.7,15.6,118.5,34.6c61.4,22.3,135.4,49.7,203.2,64.4c103.7-11.9,223.2-70.1,394.1-91.3
	c20.5-4.8,41.6-7.7,63.5-7.7c9.9,0,19.3,0.2,28.3,0.6c10.9-0.4,21.9-0.6,33.2-0.6c152,0,212.2,18.3,267,33.8
	c28.7,1.3,61,2.1,97.8,2.1c129.7,0,198.6-35.9,426.9-35.9V0H0z"/>
</svg>
